src/pos-icons/camera-rear.svg

<svg height="24" viewBox="0 0 24 24" width="24" xmlns="http://www.w3.org/2000/svg"><path d="m12 6c-1.11 0-2-.9-2-2a2 2 0 0 1 2-2c1.09 0 2 .9 2 2a2 2 0 0 1 -2 2m5-6h-10a2 2 0 0 0 -2 2v14a2 2 0 0 0 2 2h10a2 2 0 0 0 2-2v-14a2 2 0 0 0 -2-2m-3 20v2h5v-2m-9 0h-5v2h5v2l3-3-3-3z"/></svg>

<?xml version="1.0" encoding="UTF-8"?><!DOCTYPE svg PUBLIC "-//W3C//DTD SVG 1.1//EN" "http://www.w3.org/Graphics/SVG/1.1/DTD/svg11.dtd"><svg xmlns="http://www.w3.org/2000/svg" xmlns:xlink="http://www.w3.org/1999/xlink" version="1.1" id="mdi-camera-rear" width="24" height="24" viewBox="0 0 24 24"><path d="M12,6C10.89,6 10,5.1 10,4A2,2 0 0,1 12,2C13.09,2 14,2.9 14,4A2,2 0 0,1 12,6M17,0H7A2,2 0 0,0 5,2V16A2,2 0 0,0 7,18H17A2,2 0 0,0 19,16V2A2,2 0 0,0 17,0M14,20V22H19V20M10,20H5V22H10V24L13,21L10,18V20Z" /></svg>
